svgs/thin/transporter.svg

<svg xmlns="http://www.w3.org/2000/svg" viewBox="0 0 512 512"><!--! Font Awesome Pro 6.3.0 by @fontawesome - https://fontawesome.com License - https://fontawesome.com/license (Commercial License) Copyright 2023 Fonticons, Inc. --><path d="M248 312v96C248 412.4 251.6 416 256 416s8-3.578 8-8v-96c0-4.422-3.578-8-8-8S248 307.6 248 312zM256 96c26.5 0 48-21.5 48-48S282.5 0 256 0S208 21.5 208 48S229.5 96 256 96zM256 16c17.64 0 32 14.36 32 32s-14.36 32-32 32s-32-14.36-32-32S238.4 16 256 16zM127.1 287.1c9.186 0 18.29-3.914 24.67-11.48l31.38-37.75L184 408c0 4.418 3.582 8 8 8c4.42 0 8-3.582 8-8V238.8c0-6.09-3.418-11.81-8.939-14.38C180.3 219.3 172.9 227.1 171.7 228.5l-31.31 37.67C134.5 273.2 124.3 273.7 117.8 268.3C111 262.7 110.1 252.5 115.7 245.8l70.53-84.54C195.3 150.3 208.7 144 223 144h66c14.32 0 27.74 6.273 36.84 17.25l70.45 84.44c5.621 6.809 4.682 16.99-1.975 22.6c-7.234 5.973-17.33 4.279-22.63-2.014l-31.38-37.75c-1.186-1.43-8.549-9.17-19.35-4.158c-5.529 2.566-8.953 8.289-8.953 14.38V408c0 4.418 3.582 8 8 8c4.42 0 8-3.582 8-8l-.013-169.3l31.38 37.75c6.375 7.564 15.51 11.48 24.7 11.48c7.207 0 14.44-2.408 20.43-7.354c13.5-11.38 15.38-31.5 4.125-45.13l-70.5-84.5C326 136.4 308 128 289 128h-66c-19 0-36.1 8.375-49.12 23l-70.5 84.5c-11.25 13.62-9.5 33.75 4.125 45.13C113.5 285.6 120.8 287.1 127.1 287.1zM504 40h-32v-32C472 3.578 468.4 0 464 0s-8 3.578-8 8v32h-32C419.6 40 416 43.58 416 48s3.578 8 8 8h32v32C456 92.42 459.6 96 464 96s8-3.578 8-8v-32h32C508.4 56 512 52.42 512 48S508.4 40 504 40zM376 448h-240C113.9 448 96 465.9 96 488v16C96 508.4 99.58 512 104 512s8-3.578 8-8v-16c0-13.23 10.77-24 24-24h240c13.23 0 24 10.77 24 24v16c0 4.422 3.578 8 8 8S416 508.4 416 504v-16C416 465.9 398.1 448 376 448zM88 104h-32v-32C56 67.58 52.42 64 48 64S40 67.58 40 72v32h-32C3.578 104 0 107.6 0 112s3.578 8 8 8h32v32C40 156.4 43.58 160 48 160s8-3.578 8-8v-32h32C92.42 120 96 116.4 96 112S92.42 104 88 104z"/></svg>

<svg xmlns="http://www.w3.org/2000/svg" viewBox="0 0 512 512"><!-- Font Awesome Pro 6.0.0-alpha2 by @fontawesome - https://fontawesome.com License - https://fontawesome.com/license (Commercial License) --><path d="M248 312V408C248 412.422 251.578 416 256 416S264 412.422 264 408V312C264 307.578 260.422 304 256 304S248 307.578 248 312ZM256 96C282.5 96 304 74.5 304 48S282.5 0 256 0S208 21.5 208 48S229.5 96 256 96ZM256 16C273.645 16 288 30.355 288 48S273.645 80 256 80S224 65.645 224 48S238.355 16 256 16ZM127.963 287.979C137.148 287.979 146.27 284.064 152.645 276.5L184.02 238.75V408C184.02 412.418 187.602 416 192.02 416C196.439 416 200.02 412.418 200.02 408V238.75C200.02 232.66 196.602 226.941 191.08 224.371C180.273 219.342 172.898 227.1 171.715 228.523L140.408 266.189C134.469 273.24 124.287 273.717 117.773 268.342C111.002 262.688 110.086 252.525 115.68 245.75L186.213 161.211C195.281 150.273 208.697 144 223.02 144H289.02C303.344 144 316.76 150.273 325.859 161.25L396.307 245.686C401.928 252.494 400.988 262.678 394.332 268.287C387.098 274.26 377.006 272.566 371.699 266.273L340.324 228.523C339.139 227.094 331.775 219.354 320.973 224.365C315.443 226.932 312.02 232.654 312.02 238.75V408C312.02 412.418 315.602 416 320.02 416C324.439 416 328.02 412.418 328.02 408V238.75L359.395 276.5C365.77 284.064 374.893 287.979 384.078 287.979C391.285 287.979 398.529 285.57 404.52 280.625C418.02 269.25 419.895 249.125 408.645 235.5L338.145 151C326.02 136.375 308.02 128 289.02 128H223.02C204.02 128 186.02 136.375 173.895 151L103.395 235.5C92.145 249.125 93.895 269.25 107.52 280.625C113.51 285.57 120.756 287.979 127.963 287.979ZM504 40H472V8C472 3.578 468.422 0 464 0S456 3.578 456 8V40H424C419.578 40 416 43.578 416 48S419.578 56 424 56H456V88C456 92.422 459.578 96 464 96S472 92.422 472 88V56H504C508.422 56 512 52.422 512 48S508.422 40 504 40ZM376 448H136C113.938 448 96 465.938 96 488V504C96 508.422 99.578 512 104 512S112 508.422 112 504V488C112 474.766 122.766 464 136 464H376C389.234 464 400 474.766 400 488V504C400 508.422 403.578 512 408 512S416 508.422 416 504V488C416 465.938 398.062 448 376 448ZM88 104H56V72C56 67.578 52.422 64 48 64S40 67.578 40 72V104H8C3.578 104 0 107.578 0 112S3.578 120 8 120H40V152C40 156.422 43.578 160 48 160S56 156.422 56 152V120H88C92.422 120 96 116.422 96 112S92.422 104 88 104Z"/></svg>
